Origami/16x16/apps/ndm.svg

<svg width="16" height="16" version="1" xmlns="http://www.w3.org/2000/svg">
 <path d="m5 0.998431a2.0002 2.0002 0 0 0 -2 2v7a2.0002 2.0002 0 0 0 2 2h0.2675781a2.0002 2.0002 0 0 0 0.1953125 0.28125l2.5 3a2.0002 2.0002 0 0 0 3.0742184 0l2.5-3a2.0002 2.0002 0 0 0 -1.537109 -3.28125v-1.4003906a2.0002 2.0002 0 0 0 -0.0332 -0.359375c-0.014359-0.6371156-0.028954-1.2409839-0.1543-1.8476563-0.164473-0.7960476-0.538283-1.7219724-1.359375-2.3984375-0.789024-0.6500438-1.6812413-0.8381798-2.3652344-0.9160156-0.1057826-0.0120377-0.215913-0.0033406-0.3203125-0.0117188a2.0002 2.0002 0 0 0 -1.7675781 -1.0664062z" style="fill:#e14343"/>
 <path d="m5 2.998431v7h1v-5c0.7462241 0.00547 1.3291386 0.010701 1.75 0.058594 0.4216848 0.047986 0.6556327 0.1352453 0.7949219 0.25 0.1392867 0.1147541 0.2476131 0.2922761 0.3300781 0.691406s0.1196079 0.9916929 0.125 1.8027344v3.1972656h-2l2.5 3 2.5-3h-2v-3.4003906h-0.0059c-0.009732-0.730887-0.041696-1.3241187-0.140584-1.8027344-0.108463-0.5249595-0.312801-0.9639389-0.671875-1.2597656-0.3590749-0.2958267-0.8087441-0.4144417-1.3203129-0.4726563-0.5115687-0.0582146-1.1101493-0.0589829-1.8574219-0.0644531l-0.0039062 0.5v-1.5z" style="fill:#ffffff"/>
</svg>

<svg xmlns="http://www.w3.org/2000/svg" width="16" height="16" version="1">
 <path style="fill:#e14343" d="m 5,0.998431 a 2.0002,2.0002 0 0 0 -2,2 v 7 a 2.0002,2.0002 0 0 0 2,2 h 0.2675781 a 2.0002,2.0002 0 0 0 0.1953125,0.28125 l 2.5,3 a 2.0002,2.0002 0 0 0 3.0742184,0 l 2.5,-3 A 2.0002,2.0002 0 0 0 12,8.998431 V 7.795306 7.5980404 A 2.0002,2.0002 0 0 0 11.9668,7.2386654 C 11.952441,6.6015498 11.937846,5.9976815 11.8125,5.3910091 11.648027,4.5949615 11.274217,3.6690367 10.453125,2.9925716 9.664101,2.3425278 8.7718837,2.1543918 8.0878906,2.076556 7.982108,2.0645183 7.8719776,2.0732154 7.7675781,2.0648372 A 2.0002,2.0002 0 0 0 6,0.998431 Z"/>
 <path style="fill:#ffffff" d="m 5,2.998431 v 7 h 1 v -5 c 0.7462241,0.00547 1.3291386,0.010701 1.75,0.058594 0.4216848,0.047986 0.6556327,0.1352453 0.7949219,0.25 C 8.6842086,5.4217791 8.792535,5.5993011 8.875,5.998431 8.957465,6.3975609 8.9946079,6.9901239 9,7.8011654 V 10.998431 H 7 l 2.5,3 2.5,-3 H 10 V 7.795306 7.5980404 H 9.9941 C 9.984368,6.8671534 9.952404,6.2739217 9.853516,5.795306 9.745053,5.2703465 9.540715,4.8313671 9.181641,4.5355404 8.8225661,4.2397137 8.3728969,4.1210987 7.8613281,4.0628841 7.3497594,4.0046695 6.7511788,4.0039012 6.0039062,3.998431 L 6,4.498431 v -1.5 z"/>
</svg>
